X:15
T:A Night in Tunisia
C:Jazz standard
N:Arranged by Dave Cotton, From John Baldry's "Bluegrass and Old-Time Mandolin" TablEdited by Mike Stangeland
L:1/8
Q:1/4=216
M:4/4
K:F
z4 z_d (3=dfa |: "E7b5"c'3c' z2 b2 | "Dm7"_a=a3 z_d (3=dfa | "E7b5"c'3c' c'2 b2 | 
"Dm7"_ag fd z_d (3=df=a | "E7b5"c'3c' z2 b2 | "Dm"_a=a3 z2 a2 | "E7b5"ab ag "A7b5"_eA _d=d | 
|1 z"Dm7"z4_d (3=dfa :|2 d4 de fg | "Am7"a3_a z2 g2 | "D7"_ga ge dc BA | "Gm"GD GB "D7"AG _GA | 
"Gm"GD B,G, z4 | "Gm7"g3_g z2 f2 | "C7"eg ed cB AG | "F"FC FG AG F_D | "A7b5"z4 z_d (3=dfa | 
"Em7"a2 ge a2 ge | ag ea z2 a2 | "A7b5"a2 g_e a2 ge | ag _ea z2 a2 | "Dm7"a2 fd a2 fd | 
af da z2 a2 | "G7b5"a2 f_d a2 fd | af _da z2 a2 | "Gm"GB dB df df | af dB dB GB | 
"F#7"_GB _dB de de | ae _dB ed B_G | "F"(3F2A2 c2 f4 | [a3c3F3C3][acFC] z_d (3=dfa | 
"Em7"ab ag "A7b5"_eA _d=d | "Dm"d8 | 


